X: 11120
T: Duke Of Leinster, The
R: reel
M: 4/4
K: Gmajor
~G3B dB~B2|dBeB dBAB|GB~B2dB~B2|dBAB GEDE|
~G3B dB~B2|dBeB dBAB|GABd ~g3e|dBAB GE~E2||
dega bg~g2|agbg ageg|dega bage|dBAB GE~E2|
dega bg~g2|agbg ageg|bg~g2efge|dBAB GEDE||

